src/images/GeneFit/D2C4.svg

<svg fill="none" height="100" viewBox="0 0 100 100" width="100" xmlns="http://www.w3.org/2000/svg"><g stroke="#ec8539" stroke-linecap="round" stroke-linejoin="round" stroke-width="6"><path d="m30.6 29h-11.2c-.6365 0-1.247.2655-1.6971.7381-.45.4726-.7029 1.1136-.7029 1.7819v36.96c0 .3309.0621.6586.1827.9644.1206.3057.2974.5835.5202.8175.2229.234.4875.4196.7787.5463.2911.1266.6032.1918.9184.1918h11.2c.3152 0 .6273-.0652.9184-.1918.2912-.1267.5558-.3123.7787-.5463.2228-.234.3996-.5118.5202-.8175.1206-.3058.1827-.6335.1827-.9644v-36.96c0-.6683-.2529-1.3093-.7029-1.7819-.4501-.4726-1.0606-.7381-1.6971-.7381z"/><path d="m80.6 29h-11.2c-.6365 0-1.247.2655-1.6971.7381-.45.4726-.7029 1.1136-.7029 1.7819v36.96c0 .3309.0621.6586.1827.9644.1206.3057.2974.5835.5202.8175.2229.234.4875.4196.7787.5463.2911.1266.6032.1918.9184.1918h11.2c.3152 0 .6273-.0652.9184-.1918.2912-.1267.5558-.3123.7787-.5463.2228-.234.3996-.5118.5202-.8175.1206-.3058.1827-.6335.1827-.9644v-36.96c0-.6683-.2529-1.3093-.7029-1.7819-.4501-.4726-1.0606-.7381-1.6971-.7381z"/><path d="m4 59.5v-20c0-.663.27393-1.2989.76152-1.7678.4876-.4688 1.14892-.7322 1.83848-.7322h7.8c.6896 0 1.3509.2634 1.8385.7322.4876.4689.7615 1.1048.7615 1.7678v20c0 .663-.2739 1.2989-.7615 1.7678-.4876.4688-1.1489.7322-1.8385.7322h-7.8c-.68956 0-1.35088-.2634-1.83848-.7322-.48759-.4689-.76152-1.1048-.76152-1.7678z"/><path d="m96 59.5v-20c0-.663-.2739-1.2989-.7615-1.7678-.4876-.4688-1.1489-.7322-1.8385-.7322h-7.8c-.6896 0-1.3509.2634-1.8385.7322-.4876.4689-.7615 1.1048-.7615 1.7678v20c0 .663.2739 1.2989.7615 1.7678.4876.4688 1.1489.7322 1.8385.7322h7.8c.6896 0 1.3509-.2634 1.8385-.7322.4876-.4689.7615-1.1048.7615-1.7678z"/><path d="m33 50h34"/></g></svg>

<svg width="100" height="100" viewBox="0 0 100 100" fill="none" xmlns="http://www.w3.org/2000/svg">
<path d="M30.6 29H19.4C18.7635 29 18.153 29.2655 17.7029 29.7381C17.2529 30.2107 17 30.8517 17 31.52V68.48C17 68.8109 17.0621 69.1386 17.1827 69.4444C17.3033 69.7501 17.4801 70.0279 17.7029 70.2619C17.9258 70.4959 18.1904 70.6815 18.4816 70.8082C18.7727 70.9348 19.0848 71 19.4 71H30.6C30.9152 71 31.2273 70.9348 31.5184 70.8082C31.8096 70.6815 32.0742 70.4959 32.2971 70.2619C32.5199 70.0279 32.6967 69.7501 32.8173 69.4444C32.9379 69.1386 33 68.8109 33 68.48V31.52C33 30.8517 32.7471 30.2107 32.2971 29.7381C31.847 29.2655 31.2365 29 30.6 29V29Z" stroke="#EC8539" stroke-width="6" stroke-linecap="round" stroke-linejoin="round"/>
<path d="M80.6 29H69.4C68.7635 29 68.153 29.2655 67.7029 29.7381C67.2529 30.2107 67 30.8517 67 31.52V68.48C67 68.8109 67.0621 69.1386 67.1827 69.4444C67.3033 69.7501 67.4801 70.0279 67.7029 70.2619C67.9258 70.4959 68.1904 70.6815 68.4816 70.8082C68.7727 70.9348 69.0848 71 69.4 71H80.6C80.9152 71 81.2273 70.9348 81.5184 70.8082C81.8096 70.6815 82.0742 70.4959 82.2971 70.2619C82.5199 70.0279 82.6967 69.7501 82.8173 69.4444C82.9379 69.1386 83 68.8109 83 68.48V31.52C83 30.8517 82.7471 30.2107 82.2971 29.7381C81.847 29.2655 81.2365 29 80.6 29V29Z" stroke="#EC8539" stroke-width="6" stroke-linecap="round" stroke-linejoin="round"/>
<path d="M4 59.5V39.5C4 38.837 4.27393 38.2011 4.76152 37.7322C5.24912 37.2634 5.91044 37 6.6 37H14.4C15.0896 37 15.7509 37.2634 16.2385 37.7322C16.7261 38.2011 17 38.837 17 39.5V59.5C17 60.163 16.7261 60.7989 16.2385 61.2678C15.7509 61.7366 15.0896 62 14.4 62H6.6C5.91044 62 5.24912 61.7366 4.76152 61.2678C4.27393 60.7989 4 60.163 4 59.5V59.5Z" stroke="#EC8539" stroke-width="6" stroke-linecap="round" stroke-linejoin="round"/>
<path d="M96 59.5V39.5C96 38.837 95.7261 38.2011 95.2385 37.7322C94.7509 37.2634 94.0896 37 93.4 37H85.6C84.9104 37 84.2491 37.2634 83.7615 37.7322C83.2739 38.2011 83 38.837 83 39.5V59.5C83 60.163 83.2739 60.7989 83.7615 61.2678C84.2491 61.7366 84.9104 62 85.6 62H93.4C94.0896 62 94.7509 61.7366 95.2385 61.2678C95.7261 60.7989 96 60.163 96 59.5V59.5Z" stroke="#EC8539" stroke-width="6" stroke-linecap="round" stroke-linejoin="round"/>
<path d="M33 50H67" stroke="#EC8539" stroke-width="6" stroke-linecap="round" stroke-linejoin="round"/>
</svg>
